X: 16
T:Jock Broke da Prison Door
M:4/4
L:1/8
S:Shetland
R:Reel
K:G
D|"G"G2 BG BdBG|"Am"cBAB "D"dBAB|"G"G2 BG BdBG|"Am"ABAG "D7"E2 D2:|!
|:"G"g2 gd edBG|"G"g2 gd "D"eaaf|"G"g2 gd edBG|"Am"ABAG "D7"E2 D2:||
